public/assets/images/icons/secured-visa.svg

<svg width="150" height="150" viewBox="0 0 150 150" fill="none" xmlns="http://www.w3.org/2000/svg">
<mask id="mask0_4411_13441" style="mask-type:alpha" maskUnits="userSpaceOnUse" x="0" y="0" width="150" height="150">
<rect width="150" height="150" fill="white"/>
</mask>
<g mask="url(#mask0_4411_13441)">
<path d="M52.4376 97.4156H64.6298L72.2593 52.6797H60.0609L52.4376 97.4156Z" fill="white"/>
<path d="M30.2732 83.2368L29.0001 78.6302C26.6451 73.0798 19.9594 65.1085 12.1104 60.0848L23.0294 97.392L35.9303 97.37L55.1311 52.7188L42.2145 52.7282L30.2732 83.2368Z" fill="white"/>
<path d="M19.0597 52.2969H0.156792L0 53.1875C14.7102 56.756 24.4439 65.3545 28.4829 75.6934L24.3718 55.9313C23.6631 53.2063 21.6091 52.3941 19.0597 52.2969Z" fill="white"/>
<path d="M106.095 62.9671L107.196 63.4846L108.845 53.7885C106.431 52.8823 102.646 51.9102 97.923 51.9102C85.8751 51.9102 77.3833 57.978 77.3174 66.6737C77.239 73.0991 83.3664 76.6865 87.995 78.8282C92.7458 81.0233 94.3388 82.4188 94.3168 84.3787C94.2792 87.3734 90.5287 88.7469 87.026 88.7469C82.1435 88.7469 79.5501 88.0727 75.5456 86.4044L73.9746 85.6895L72.2593 95.7022C75.1129 96.9534 80.378 98.029 85.8438 98.0855C98.66 98.0855 106.989 92.0897 107.077 82.7982C107.13 77.715 103.878 73.836 96.8318 70.6531C92.567 68.5772 89.958 67.1974 89.9831 65.1027C89.9831 63.2431 92.197 61.255 96.9697 61.255C100.959 61.1923 103.85 62.064 106.095 62.9671Z" fill="white"/>
<path fill-rule="evenodd" clip-rule="evenodd" d="M130.715 52.7305C127.789 52.7305 125.613 53.527 124.327 56.4433L106.224 97.4413H119.028C119.028 97.4413 121.116 91.9285 121.59 90.7212C122.991 90.7212 135.431 90.74 137.203 90.74C137.567 92.3017 138.689 97.4413 138.689 97.4413H150L140.135 52.7305H130.715ZM129.956 69.062C129.89 69.1842 130.95 66.4749 131.58 64.7909L132.402 68.648C132.402 68.648 134.738 79.3287 135.227 81.5646H125.099C126.102 78.9963 129.956 69.062 129.956 69.062Z" fill="white"/>
</g>
</svg>

<svg width="150" height="150" fill="none" xmlns="http://www.w3.org/2000/svg"><mask id="a" style="mask-type:alpha" maskUnits="userSpaceOnUse" x="0" y="0" width="150" height="150"><path fill="#fff" d="M0 0h150v150H0z"/></mask><g mask="url(#a)" fill="#fff"><path d="M52.438 97.416H64.63l7.63-44.736h-12.2l-7.622 44.736zM30.273 83.237L29 78.63c-2.355-5.55-9.04-13.521-16.89-18.545l10.92 37.307 12.9-.022 19.201-44.651-12.916.01-11.942 30.508z"/><path d="M19.06 52.297H.157l-.157.89c14.71 3.569 24.444 12.168 28.483 22.506l-4.111-19.762c-.709-2.725-2.763-3.537-5.312-3.634zM106.095 62.967l1.101.518 1.649-9.697c-2.414-.906-6.199-1.878-10.922-1.878-12.048 0-20.54 6.068-20.606 14.764-.078 6.425 6.05 10.012 10.678 12.154 4.75 2.195 6.344 3.59 6.322 5.55-.038 2.995-3.788 4.369-7.291 4.369-4.882 0-7.476-.674-11.48-2.343l-1.571-.715-1.716 10.013c2.854 1.251 8.119 2.327 13.585 2.383 12.816 0 21.145-5.995 21.233-15.287.053-5.083-3.199-8.962-10.245-12.145-4.265-2.076-6.874-3.456-6.849-5.55 0-1.86 2.214-3.848 6.987-3.848 3.989-.063 6.88.809 9.125 1.712z"/><path fill-rule="evenodd" clip-rule="evenodd" d="M130.715 52.73c-2.926 0-5.102.797-6.388 3.713l-18.103 40.998h12.804s2.088-5.513 2.562-6.72c1.401 0 13.841.019 15.613.019a881.152 881.152 0 011.486 6.701H150l-9.865-44.71h-9.42zm-.759 16.332c-.066.122.994-2.587 1.624-4.271l.822 3.857 2.825 12.917h-10.128c1.003-2.569 4.857-12.503 4.857-12.503z"/></g></svg>
